icons/history.svg

<svg width="24" height="24" viewBox="0 0 24 24" fill="none" xmlns="http://www.w3.org/2000/svg">
<path fill-rule="evenodd" clip-rule="evenodd" d="M12 4C9.03998 4 6.45368 5.60799 5.06996 8H8C8.55228 8 9 8.44772 9 9C9 9.55228 8.55228 10 8 10H3C2.44772 10 2 9.55228 2 9V4C2 3.44772 2.44772 3 3 3C3.55228 3 4 3.44772 4 4V5.9994C5.82396 3.57138 8.72775 2 12 2C17.5228 2 22 6.47715 22 12C22 17.5228 17.5228 22 12 22C6.85205 22 2.61382 18.1109 2.06098 13.1099C2.0003 12.5609 2.39611 12.0667 2.94505 12.0061C3.49399 11.9454 3.98819 12.3412 4.04887 12.8901C4.49093 16.889 7.88284 20 12 20C16.4183 20 20 16.4183 20 12C20 7.58172 16.4183 4 12 4ZM12 7C12.5523 7 13 7.44772 13 8V11.5858L15.7071 14.2929C16.0976 14.6834 16.0976 15.3166 15.7071 15.7071C15.3166 16.0976 14.6834 16.0976 14.2929 15.7071L11.2929 12.7071C11.1054 12.5196 11 12.2652 11 12V8C11 7.44772 11.4477 7 12 7Z" fill="black"/>
</svg>

<svg
  width="24"
  height="24"
  viewBox="0 0 24 24"
  xmlns="http://www.w3.org/2000/svg"
>
  <path
    fill-rule="evenodd"
    clip-rule="evenodd"
    d="M12 4a7.998 7.998 0 0 0-6.93 4H8a1 1 0 0 1 0 2H3a1 1 0 0 1-1-1V4a1 1 0 0 1 2 0v2a9.984 9.984 0 0 1 8-4c5.523 0 10 4.477 10 10s-4.477 10-10 10c-5.148 0-9.386-3.89-9.939-8.89a1 1 0 1 1 1.988-.22A8.001 8.001 0 0 0 20 12a8 8 0 0 0-8-8zm0 3a1 1 0 0 1 1 1v3.586l2.707 2.707a1 1 0 0 1-1.414 1.414l-3-3A1 1 0 0 1 11 12V8a1 1 0 0 1 1-1z"
  />
</svg>
